assets/sprite/svg/events__arrow.svg

<svg width="18" height="18" viewBox="0 0 18 18" fill="none" xmlns="http://www.w3.org/2000/svg">
<path d="M9.19092 0.837366C9.08548 0.731931 8.91453 0.731918 8.80908 0.837364L8.98586 1.01414L8.80908 0.837365L7.42736 2.21909C7.42735 2.21909 7.42735 2.21909 7.42735 2.21909C7.32198 2.32447 7.3219 2.49529 7.42718 2.60076L12.5672 7.75H1.02C0.870889 7.75 0.75 7.87088 0.75 8.02V9.98C0.75 10.1291 0.870881 10.25 1.02 10.25H12.5672L7.42718 15.3992L7.60412 15.5759L7.42718 15.3992C7.32191 15.5047 7.32197 15.6755 7.42735 15.7809L8.80908 17.1626C8.91452 17.2681 9.08548 17.2681 9.19092 17.1626L17.1626 9.19092C17.2681 9.08549 17.2681 8.91454 17.1626 8.80908L9.19092 0.837366Z" fill="white" stroke="white" stroke-width="0.5"/>
</svg>

<svg width="18" height="18" fill="none" xmlns="http://www.w3.org/2000/svg"><path d="M9.19.837a.27.27 0 00-.38 0l.176.177-.177-.177L7.427 2.22s0 0 0 0a.27.27 0 000 .382l5.14 5.149H1.02a.27.27 0 00-.27.27v1.96c0 .15.12.27.27.27h11.547l-5.14 5.15.177.176-.177-.177a.27.27 0 000 .382l1.382 1.382a.27.27 0 00.382 0l7.972-7.972a.27.27 0 000-.382L9.19.837z" fill="#fff" stroke="#fff" stroke-width=".5"/></svg>
